dist/svg/u1F1F0.svg

<svg id="Layer_1" data-name="Layer 1" xmlns="http://www.w3.org/2000/svg" viewBox="0 0 40 40"><defs><style>.cls-1{fill:#afb7c0;}.cls-2{fill:none;}</style></defs><path class="cls-1" d="M28.5,7.1a4.405,4.405,0,0,1,4.4,4.4v17a4.405,4.405,0,0,1-4.4,4.4h-17a4.405,4.405,0,0,1-4.4-4.4v-17a4.405,4.405,0,0,1,4.4-4.4h17m0-3.6h-17a8,8,0,0,0-8,8v17a8,8,0,0,0,8,8h17a8,8,0,0,0,8-8v-17a8,8,0,0,0-8-8Z"/><path class="cls-1" d="M17.109,24.041v4.968h-3.84V11.1h3.84v7.321L23.134,11.1H27.79l-6.745,8.185,7.225,9.721H23.518l-4.969-6.745Z"/><rect class="cls-2" width="40" height="40"/></svg>

<?xml version="1.0" encoding="UTF-8"?><svg id="a" xmlns="http://www.w3.org/2000/svg" viewBox="0 0 40 40"><g><path d="M28.5,3.5H11.5C7.082,3.5,3.5,7.082,3.5,11.5V28.5c0,4.418,3.582,8,8,8H28.5c4.418,0,8-3.582,8-8V11.5c0-4.418-3.582-8-8-8Zm4.4,25c0,2.426-1.974,4.4-4.4,4.4H11.5c-2.426,0-4.4-1.974-4.4-4.4V11.5c0-2.426,1.974-4.4,4.4-4.4H28.5c2.426,0,4.4,1.974,4.4,4.4V28.5Z" fill="#afb7c0"/><polygon points="27.79 11.103 23.134 11.103 17.109 18.424 17.109 11.103 13.269 11.103 13.269 29.009 17.109 29.009 17.109 24.041 18.549 22.264 23.518 29.009 28.27 29.009 21.045 19.288 27.79 11.103" fill="#afb7c0"/></g><rect width="40" height="40" fill="none"/></svg>
